Adwaita++-Dark/actions/16/document-revert-rtl.svg

<svg height="16" width="16" xmlns="http://www.w3.org/2000/svg">
  <g fill="#e6ddff">
    <path d="m6 11v-2h-1c-1 0-1 1-1 1v4h-2v-4c0-3 3-3 3-3h1v-2l4.5 3z"/>
    <path d="m13 15s1 0 1-1v-12c0-1-1-1-1-1h-10s-1 0-1 1v4h2v-3h8v10h-8-2v1c0 1 1 1 1 1z"/>
  </g>
</svg>

<svg xmlns="http://www.w3.org/2000/svg" width="16" height="16" version="1.1">
 <path style="fill:#E6DDFF" d="M 6,11 V 9 H 5 C 4,9 4,10 4,10 V 14 H 2 V 10 C 2,7 5,7 5,7 H 6 V 5 L 10.5,8 Z"/>
 <path style="fill:#E6DDFF" d="M 13,15 C 13,15 14,15 14,14 V 2 C 14,1 13,1 13,1 H 3 C 3,1 2,1 2,2 V 6 H 4 V 3 H 12 V 13 H 4 2 V 14 C 2,15 3,15 3,15 Z"/>
</svg>
